X: 10741
T: THE "ANNIE" SCHOTTISCHE
C: By Wilcox
R: shottish
B: K\"ohler's Violin Repository, v.1, 1885 p.74 #1
F: http://www.archive.org/details/klersviolinrepos01edin
Z: 2012 John Chambers <jc:trillian.mit.edu>
M: 2/4
L: 1/16
K: Bb
uF2 |\
B2B2 (A<c)f2 | G2G2 (F<B)d2 | (d<c)(c<=B) (d3^c) | d>cB>G (.F2.F2) |\
B2B2 (A<c)f2 | G2G2 (F<D)B2 | (d<c)(c<f) (.A3.c) | d2[B2D2][B2D2] :|
|: uF2 |\
d2(d>c) B2((3fgf) | g2f2 A3c | e2(e>d) c2((3BcB) | "^>"A2"^>"^C2"^>"D3F |\
d2(d>c) B2A2 | {A}G^FGB =e2(dc) | =Bc=eg _b2(ag) | f2a2f2 "^D.C.":|
K: Eb
|: uB2 |\
g2(g>f) (e<B)B2 | c2(c>=B) f3e | d2(d>c) (c<B)B2 | (B>c)B>A (.G3.B) |\
g2(g>f) (e<B)B2 | c2(c=B) (.f3.e) | dc=Bc (.a3.d) | e2g2e2 "_D.C.":|

%%sep 2 1 500

